svg/services/Invitation.svg

<svg width="89" height="86" viewBox="0 0 89 86" fill="none" xmlns="http://www.w3.org/2000/svg">
<path d="M51.1737 70.7749H34.9629C34.0352 70.7749 33.2832 70.0227 33.2832 69.0952C33.2832 68.1677 34.0352 67.4155 34.9629 67.4155H51.1737C52.1014 67.4155 52.8534 68.1677 52.8534 69.0952C52.8534 70.0227 52.1014 70.7749 51.1737 70.7749Z" fill="#E95C6D"/>
<path d="M56.1913 77.458H29.9453C29.0176 77.458 28.2656 76.7058 28.2656 75.7783C28.2656 74.8508 29.0176 74.0986 29.9453 74.0986H56.1913C57.119 74.0986 57.871 74.8508 57.871 75.7783C57.871 76.7058 57.119 77.458 56.1913 77.458Z" fill="#E95C6D"/>
<path d="M56.7129 17.0873C56.2829 17.0873 55.8532 16.9232 55.5251 16.5953C54.8692 15.9394 54.8692 14.8758 55.5251 14.2198L58.3715 11.3735C59.0275 10.7179 60.091 10.7179 60.747 11.3735C61.4029 12.0294 61.4029 13.093 60.747 13.7491L57.9006 16.5953C57.5725 16.9232 57.1427 17.0873 56.7129 17.0873V17.0873Z" fill="#E95C6D"/>
<path d="M26.5776 47.2221C26.1476 47.2221 25.7179 47.058 25.3899 46.7302C24.734 46.0742 24.734 45.0107 25.3899 44.3546L28.2363 41.5084C28.8922 40.8526 29.9556 40.8528 30.6117 41.5084C31.2676 42.1643 31.2676 43.2278 30.6117 43.8839L27.7653 46.7302C27.4373 47.058 27.0074 47.2221 26.5776 47.2221V47.2221Z" fill="#E95C6D"/>
<path d="M29.4236 17.087C28.9937 17.087 28.5639 16.9228 28.2359 16.595L25.3895 13.7487C24.7335 13.0928 24.7334 12.0292 25.3895 11.3732C26.0454 10.7174 27.109 10.7174 27.7649 11.3732L30.6113 14.2194C31.2672 14.8753 31.2674 15.9389 30.6113 16.595C30.2834 16.9228 29.8534 17.087 29.4236 17.087Z" fill="#E95C6D"/>
<path d="M59.5588 47.2217C59.129 47.2217 58.6992 47.0576 58.3711 46.7297L55.5247 43.8835C54.8688 43.2276 54.8686 42.164 55.5247 41.5079C56.1806 40.8522 57.2442 40.8522 57.9001 41.5079L60.7465 44.3542C61.4024 45.0101 61.4026 46.0737 60.7465 46.7297C60.4187 47.0576 59.9888 47.2217 59.5588 47.2217V47.2217Z" fill="#E95C6D"/>
<path d="M78.5691 23.2034H78.1307V5.83255C78.1307 2.61645 75.5142 0 72.2981 0H13.7019C10.4858 0 7.86934 2.61645 7.86934 5.83255V23.2034H7.43094C3.33351 23.2034 0 26.5367 0 30.6341V78.5684C0 82.6662 3.33384 86 7.43178 86H78.5684C82.6662 86 86 82.6662 86 78.5684V65.5542C86 64.6266 85.248 63.8745 84.3203 63.8745C83.3926 63.8745 82.6406 64.6266 82.6406 65.5542V72.9831L61.3188 53.6089L82.6406 35.9913V44.1528C82.6406 45.0803 83.3926 45.8325 84.3203 45.8325C85.248 45.8325 86 45.0803 86 44.1528V30.6341C86 26.5367 82.6665 23.2034 78.5691 23.2034ZM11.2287 5.83255C11.2287 4.46881 12.3381 3.35938 13.7019 3.35938H72.2981C73.6619 3.35938 74.7713 4.46881 74.7713 5.83255V38.1358L47.151 60.9575H38.8488L11.2287 38.1358V5.83255ZM3.35938 35.9913L24.6812 53.6089L3.35938 72.9831V35.9913ZM3.35938 30.6341C3.35938 28.3892 5.18587 26.5627 7.43094 26.5627H7.86934V35.3601L3.35938 31.6337V30.6341ZM82.6406 77.5221V78.5684C82.6406 80.8138 80.8138 82.6406 78.5682 82.6406H7.43178C5.1862 82.6406 3.35938 80.8138 3.35938 78.5684V77.5221L27.2974 55.7707L37.1748 63.9321C37.4758 64.1807 37.8541 64.3169 38.2448 64.3169H47.7552C48.1457 64.3169 48.524 64.1807 48.8252 63.9321L58.7026 55.7707L82.6406 77.5221ZM78.1307 26.5627H78.5691C80.8141 26.5627 82.6406 28.3892 82.6406 30.6341V31.6337L78.1307 35.3601V26.5627Z" fill="#E95C6D"/>
<path d="M82.9709 57.5991C82.6843 57.3243 82.5072 56.9354 82.5071 56.4977L82.507 52.6989C82.507 51.8235 83.2161 51.0839 84.0909 51.0471C84.9655 51.0105 85.6746 51.6905 85.6747 52.5658L85.6747 56.3646C85.6747 57.24 84.9657 57.9797 84.0908 58.0164C83.6536 58.0347 83.2576 57.874 82.9709 57.5991V57.5991Z" fill="#E95C6D"/>
<path d="M42.5611 43.8777C42.1489 43.8777 41.7514 43.7302 41.4416 43.4622C40.2717 42.4517 39.1438 41.5022 38.1487 40.6646L38.1436 40.6602C35.2261 38.2044 32.7067 36.0836 30.9538 33.9944C28.9943 31.6589 28.0815 29.4444 28.0815 27.0253C28.0815 24.6749 28.8975 22.5065 30.3789 20.9192C31.878 19.3132 33.9349 18.4287 36.1715 18.4287C37.8432 18.4287 39.3741 18.9507 40.7216 19.9802C41.4016 20.4998 42.0181 21.1357 42.5611 21.8775C43.1044 21.1357 43.7206 20.4998 44.4009 19.9802C45.7484 18.9507 47.2793 18.4287 48.951 18.4287C51.1873 18.4287 53.2445 19.3132 54.7436 20.9192C56.225 22.5065 57.0407 24.6749 57.0407 27.0253C57.0407 29.4444 56.1282 31.6589 54.1687 33.9942C52.4158 36.0836 49.8966 38.2042 46.9795 40.6598C45.9826 41.4987 44.853 42.4498 43.6804 43.4626C43.3709 43.7302 42.9732 43.8777 42.5611 43.8777V43.8777ZM36.1715 20.1043C34.4144 20.1043 32.8002 20.797 31.6259 22.0549C30.4341 23.3318 29.7777 25.0969 29.7777 27.0253C29.7777 29.0599 30.5433 30.8795 32.2598 32.9253C33.9188 34.9027 36.3865 36.9799 39.2437 39.3851L39.249 39.3894C40.2479 40.2303 41.3802 41.1836 42.5587 42.2014C43.7443 41.1816 44.8784 40.2268 45.8792 39.3846C48.7362 36.9795 51.2037 34.9027 52.8627 32.9253C54.579 30.8795 55.3446 29.0599 55.3446 27.0253C55.3446 25.0969 54.6881 23.3318 53.4964 22.0549C52.3223 20.797 50.7079 20.1043 48.951 20.1043C47.6638 20.1043 46.482 20.5085 45.4384 21.3055C44.5085 22.0161 43.8607 22.9143 43.4809 23.5429C43.2856 23.8661 42.9418 24.059 42.5611 24.059C42.1805 24.059 41.8367 23.8661 41.6414 23.5429C41.2618 22.9143 40.614 22.0161 39.6838 21.3055C38.6403 20.5085 37.4585 20.1043 36.1715 20.1043V20.1043Z" fill="#E95C6D"/>
</svg>

<svg width="89" height="86" fill="none" xmlns="http://www.w3.org/2000/svg"><path d="M51.174 70.775H34.963a1.68 1.68 0 010-3.36h16.21a1.68 1.68 0 010 3.36zM56.191 77.458H29.945a1.68 1.68 0 010-3.36h26.246a1.68 1.68 0 010 3.36zM56.713 17.087a1.68 1.68 0 01-1.188-2.867l2.846-2.846a1.68 1.68 0 012.376 2.375l-2.846 2.846a1.675 1.675 0 01-1.188.492zM26.578 47.222a1.68 1.68 0 01-1.188-2.867l2.846-2.847a1.68 1.68 0 012.376 2.376l-2.847 2.846a1.675 1.675 0 01-1.187.492zM29.424 17.087c-.43 0-.86-.164-1.188-.492l-2.846-2.846a1.68 1.68 0 112.375-2.376l2.846 2.846a1.68 1.68 0 01-1.187 2.868zM59.559 47.222c-.43 0-.86-.164-1.188-.492l-2.846-2.846a1.68 1.68 0 012.375-2.376l2.846 2.846a1.68 1.68 0 01-1.187 2.868z" fill="#E95C6D"/><path d="M78.57 23.203h-.44V5.833A5.84 5.84 0 0072.299 0H13.702a5.84 5.84 0 00-5.833 5.833v17.37h-.438C3.334 23.203 0 26.537 0 30.634v47.934C0 82.666 3.334 86 7.432 86h71.136C82.666 86 86 82.666 86 78.568V65.554a1.68 1.68 0 00-3.36 0v7.43L61.32 53.608 82.64 35.99v8.162a1.68 1.68 0 003.359 0V30.634c0-4.097-3.334-7.43-7.43-7.43zM11.228 5.833a2.476 2.476 0 012.473-2.474h58.596a2.476 2.476 0 012.473 2.474v32.303l-27.62 22.822h-8.302l-27.62-22.822V5.833zM3.359 35.99L24.681 53.61 3.36 72.983V35.991zm0-5.357a4.076 4.076 0 014.072-4.071h.438v8.797l-4.51-3.726v-1zm79.282 46.888v1.046a4.077 4.077 0 01-4.073 4.073H7.432a4.077 4.077 0 01-4.073-4.073v-1.046l23.938-21.751 9.878 8.161c.3.249.68.385 1.07.385h9.51c.39 0 .769-.136 1.07-.385l9.878-8.161L82.64 77.522zm-4.51-50.96h.438a4.076 4.076 0 014.072 4.072v1l-4.51 3.726v-8.797z" fill="#E95C6D"/><path d="M82.97 57.6a1.515 1.515 0 01-.463-1.102v-3.8c0-.874.71-1.614 1.584-1.65a1.507 1.507 0 011.584 1.518v3.799c0 .875-.71 1.615-1.584 1.651a1.515 1.515 0 01-1.12-.417zM42.561 43.878a1.71 1.71 0 01-1.12-.416c-1.17-1.01-2.297-1.96-3.292-2.797l-.005-.005c-2.918-2.456-5.437-4.576-7.19-6.666-1.96-2.335-2.873-4.55-2.873-6.969 0-2.35.817-4.518 2.298-6.106 1.499-1.606 3.556-2.49 5.793-2.49 1.671 0 3.202.522 4.55 1.551a9.244 9.244 0 011.84 1.898A9.246 9.246 0 0144.4 19.98c1.347-1.03 2.878-1.551 4.55-1.551 2.236 0 4.294.884 5.793 2.49 1.481 1.587 2.297 3.756 2.297 6.106 0 2.42-.913 4.634-2.872 6.97-1.753 2.089-4.272 4.21-7.19 6.665-.996.839-2.126 1.79-3.299 2.803-.31.267-.707.415-1.119.415zm-6.39-23.774c-1.757 0-3.37.693-4.545 1.95-1.192 1.278-1.848 3.043-1.848 4.971 0 2.035.765 3.855 2.482 5.9 1.659 1.978 4.127 4.055 6.984 6.46l.005.004c.999.841 2.131 1.795 3.31 2.812 1.185-1.02 2.32-1.974 3.32-2.816 2.857-2.405 5.325-4.482 6.984-6.46 1.716-2.045 2.482-3.865 2.482-5.9 0-1.928-.657-3.693-1.849-4.97-1.174-1.258-2.788-1.95-4.545-1.95-1.287 0-2.469.404-3.513 1.2-.93.711-1.577 1.61-1.957 2.238-.195.323-.54.516-.92.516s-.724-.193-.92-.516c-.38-.629-1.027-1.527-1.957-2.238-1.044-.796-2.225-1.2-3.512-1.2z" fill="#E95C6D"/></svg>
